X: 5604
T: Butlers
R: waltz
M: 3/4
K: Edorian
FA|:B2A2F2|AFE2F2|D2E2F2|A3D FA|
[1 B2AFE2|FAB2AF|E2F2D2|d4FA:|
[2 B2AFd2|BAF2AF|E2DFE2|E4FA||
|:B2-BAF2|E2FAB2-|BAF2d2|c2A2F2|
[1 B2-BAF2|E2FAB2-|BAF2A2|D3E lFA:|
[2 EEE2E2|F2A2B2-|BAF2A2|D4 FA||
|:B2dcB2|c2e2A2|c2B2d2|c2A2F2|
[1 z2 dcB2|A2c2B2|E2B2A2|F3dc2:|
[2 EEE2E2|F2A2B2-|BAF2A2|D4 FA||
|:E2-EFA2|B2E2-EF|A2B2A2|F3ED2|
E2-EFA2|B2E2-EF|A2B2d2|c3BA2|
B2BAF2|E2B2BA|F2E2A2|D3E FA|
B2AFd2|BAF2AF|E2DFE2|E4 Bd:|
|:e2Bde2|f3ed2|A2Bde2|Bde2a2|
f2d2A2|EFA2d2|A2B2B2|f3 ed2|
a2Bde2|Bde2f2|dB de af|ed ba fe|
fe dB AF|EF AB dB|AF E2 E2|E4 Bd:|

